assets/svgs/security-grey/SecurityGrey13.svg

<svg xmlns="http://www.w3.org/2000/svg" data-name="Layer 3" viewBox="0 0 128 128"><path fill="#231f20" d="M94.893 22.732H33.107a10.386 10.386 0 00-10.375 10.375v61.786a10.386 10.386 0 0010.374 10.375h61.787a10.386 10.386 0 0010.374-10.375V33.107a10.386 10.386 0 00-10.374-10.375zm7.153 72.161a7.162 7.162 0 01-7.153 7.154H33.107a7.162 7.162 0 01-7.154-7.154V33.107a7.162 7.162 0 017.154-7.154h61.786a7.162 7.162 0 017.153 7.154z"/><path fill="#231f20" d="M66.391 62.39h-3.584a7.69 7.69 0 00-1.082-2.59l2.541-2.533a1.61 1.61 0 00-2.274-2.28l-2.542 2.53a7.691 7.691 0 00-2.6-1.089v-3.582a1.61 1.61 0 10-3.221 0v3.582a7.692 7.692 0 00-2.6 1.087l-2.554-2.534a1.61 1.61 0 00-2.275 2.286l2.545 2.525a7.69 7.69 0 00-1.086 2.6h-3.577a1.61 1.61 0 100 3.221h3.582a7.692 7.692 0 001.088 2.6l-2.546 2.522a1.611 1.611 0 002.266 2.29l2.56-2.535a7.691 7.691 0 002.594 1.084v3.582a1.61 1.61 0 103.221 0v-3.584a7.693 7.693 0 002.608-1.092l2.528 2.543a1.61 1.61 0 002.284-2.271l-2.54-2.552a7.685 7.685 0 001.08-2.587h3.583a1.611 1.611 0 000-3.221zm-11.155 6.135A4.525 4.525 0 1159.76 64a4.53 4.53 0 01-4.524 4.525z"/><path fill="#231f20" d="M95.056 55.864a5.939 5.939 0 000-11.879h-1.668a10.385 10.385 0 00-10.326-9.422H44.938a10.386 10.386 0 00-10.374 10.376v38.122a10.386 10.386 0 0010.374 10.375h38.124a10.386 10.386 0 0010.374-10.375v-1.2h1.62a5.939 5.939 0 000-11.879h-1.62V55.864zm2.718-5.94a2.722 2.722 0 01-2.718 2.719H88.6a2.718 2.718 0 010-5.437h6.461a2.721 2.721 0 012.714 2.718zm0 26a2.721 2.721 0 01-2.718 2.718H88.6a2.718 2.718 0 110-5.437h6.461a2.722 2.722 0 012.714 2.716zm-7.559-5.94H88.6a5.939 5.939 0 100 11.879h1.62v1.2a7.162 7.162 0 01-7.153 7.154H44.938a7.162 7.162 0 01-7.153-7.154V44.939a7.162 7.162 0 017.153-7.154h38.124a7.141 7.141 0 017.057 6.2H88.6a5.939 5.939 0 000 11.879h1.62z"/></svg>

<svg id="Layer_3" data-name="Layer 3" xmlns="http://www.w3.org/2000/svg" viewBox="0 0 128 128"><title>Artboard 109</title><path d="M94.893,22.732H33.107A10.386,10.386,0,0,0,22.732,33.107V94.893a10.386,10.386,0,0,0,10.374,10.375H94.893a10.386,10.386,0,0,0,10.374-10.375V33.107A10.386,10.386,0,0,0,94.893,22.732Zm7.153,72.161a7.162,7.162,0,0,1-7.153,7.154H33.107a7.162,7.162,0,0,1-7.154-7.154V33.107a7.162,7.162,0,0,1,7.154-7.154H94.893a7.162,7.162,0,0,1,7.153,7.154Z" style="fill:#231f20"/><path d="M66.391,62.39H62.807A7.69,7.69,0,0,0,61.725,59.8l2.541-2.533a1.61,1.61,0,0,0-2.274-2.28L59.45,57.517a7.691,7.691,0,0,0-2.6-1.089V52.846a1.61,1.61,0,1,0-3.221,0v3.582a7.692,7.692,0,0,0-2.6,1.087l-2.554-2.534A1.61,1.61,0,0,0,46.2,57.267l2.545,2.525a7.69,7.69,0,0,0-1.086,2.6H44.082a1.61,1.61,0,1,0,0,3.221h3.582a7.692,7.692,0,0,0,1.088,2.6l-2.546,2.522a1.611,1.611,0,0,0,2.266,2.29l2.56-2.535a7.691,7.691,0,0,0,2.594,1.084v3.582a1.61,1.61,0,1,0,3.221,0V71.572a7.693,7.693,0,0,0,2.608-1.092l2.528,2.543a1.61,1.61,0,0,0,2.284-2.271L61.727,68.2a7.685,7.685,0,0,0,1.08-2.587h3.583a1.611,1.611,0,0,0,0-3.221ZM55.236,68.525A4.525,4.525,0,1,1,59.76,64,4.53,4.53,0,0,1,55.236,68.525Z" style="fill:#231f20"/><path d="M95.056,55.864a5.939,5.939,0,0,0,0-11.879H93.388a10.385,10.385,0,0,0-10.326-9.422H44.938A10.386,10.386,0,0,0,34.564,44.939V83.061A10.386,10.386,0,0,0,44.938,93.436H83.062A10.386,10.386,0,0,0,93.436,83.061v-1.2h1.62a5.939,5.939,0,0,0,0-11.879h-1.62V55.864Zm2.718-5.94a2.722,2.722,0,0,1-2.718,2.719H88.6a2.718,2.718,0,0,1,0-5.437h6.461A2.721,2.721,0,0,1,97.775,49.924Zm0,26a2.721,2.721,0,0,1-2.718,2.718H88.6a2.718,2.718,0,1,1,0-5.437h6.461A2.722,2.722,0,0,1,97.775,75.921Zm-7.559-5.94H88.6a5.939,5.939,0,1,0,0,11.879h1.62v1.2a7.162,7.162,0,0,1-7.153,7.154H44.938a7.162,7.162,0,0,1-7.153-7.154V44.939a7.162,7.162,0,0,1,7.153-7.154H83.062a7.141,7.141,0,0,1,7.057,6.2H88.6a5.939,5.939,0,0,0,0,11.879h1.62Z" style="fill:#231f20"/></svg>
